scalable/status/display-brightness-symbolic.svg

<?xml version="1.0" encoding="UTF-8" standalone="no"?>
<!-- Created with Inkscape (http://www.inkscape.org/) -->

<svg
   xmlns:dc="http://purl.org/dc/elements/1.1/"
   xmlns:cc="http://creativecommons.org/ns#"
   xmlns:rdf="http://www.w3.org/1999/02/22-rdf-syntax-ns#"
   xmlns:svg="http://www.w3.org/2000/svg"
   xmlns="http://www.w3.org/2000/svg"
   xmlns:sodipodi="http://sodipodi.sourceforge.net/DTD/sodipodi-0.dtd"
   xmlns:inkscape="http://www.inkscape.org/namespaces/inkscape"
   width="256"
   height="256"
   viewBox="0 0 256 256"
   id="svg2"
   version="1.1"
   inkscape:version="0.92.2 (5c3e80d, 2017-08-06)"
   sodipodi:docname="display-brightness-symbolic.svg">
  <sodipodi:namedview
     id="base"
     pagecolor="#ffffff"
     bordercolor="#666666"
     borderopacity="1.0"
     inkscape:pageopacity="0.0"
     inkscape:pageshadow="2"
     inkscape:zoom="3.3359375"
     inkscape:cx="128"
     inkscape:cy="128"
     inkscape:document-units="px"
     inkscape:current-layer="layer1"
     showgrid="true"
     units="px"
     inkscape:window-width="1920"
     inkscape:window-height="1054"
     inkscape:window-x="0"
     inkscape:window-y="0"
     inkscape:window-maximized="1">
    <inkscape:grid
       spacingy="5"
       spacingx="5"
       id="grid4136"
       type="xygrid" />
  </sodipodi:namedview>
  <defs
     id="defs4">
    <clipPath
       id="clipPath4828"
       clipPathUnits="userSpaceOnUse">
      <circle
         style="opacity:1;fill:#68bdff;fill-opacity:1;stroke:none;stroke-width:52.82038116;stroke-linecap:round;stroke-linejoin:round;stroke-miterlimit:4;stroke-dasharray:none;stroke-opacity:1"
         id="circle4830"
         cx="128"
         cy="924.36218"
         r="128" />
    </clipPath>
    <clipPath
       id="clipPath4851"
       clipPathUnits="userSpaceOnUse">
      <path
         inkscape:connector-curvature="0"
         style="opacity:1;fill:#68bdff;fill-opacity:1;stroke:none;stroke-width:52.82038116;stroke-linecap:round;stroke-linejoin:round;stroke-miterlimit:4;stroke-dasharray:none;stroke-opacity:1"
         d="m 128,796.36216 a 128,128 0 0 0 -87.652344,34.83789 l 86.988284,87.51367 90.69336,-85.25976 A 128,128 0 0 0 128,796.36216 Z M 23.730469,850.28404 A 128,128 0 0 0 0,924.36216 128,128 0 0 0 128,1052.3622 128,128 0 0 0 256,924.36216 128,128 0 0 0 234.1582,852.93052 l -95.94336,90.19922 c -0.48074,0.45195 -0.99482,0.84265 -1.52148,1.20508 -0.25351,0.30378 -0.51825,0.602 -0.80469,0.88672 -4.95863,4.92876 -12.91888,4.90394 -17.84765,-0.0547 L 23.730469,850.28404 Z"
         id="path4853" />
    </clipPath>
    <clipPath
       id="clipPath4147"
       clipPathUnits="userSpaceOnUse">
      <path
         inkscape:connector-curvature="0"
         style="opacity:1;fill:#fff168;fill-opacity:1;stroke:none;stroke-width:52.82038116;stroke-linecap:round;stroke-linejoin:round;stroke-miterlimit:4;stroke-dasharray:none;stroke-opacity:1"
         d="M 23.730469,850.28404 A 128,128 0 0 0 0,924.36216 128,128 0 0 0 128,1052.3622 128,128 0 0 0 256,924.36216 128,128 0 0 0 234.1582,852.93052 l -95.94336,90.19922 c -0.48074,0.45195 -0.99482,0.84265 -1.52148,1.20508 -0.25351,0.30378 -0.51825,0.602 -0.80469,0.88672 -4.95863,4.92876 -12.91888,4.90394 -17.84765,-0.0547 l -94.310551,-94.8828 z"
         id="path4149" />
    </clipPath>
    <clipPath
       clipPathUnits="userSpaceOnUse"
       id="clipPath4292">
      <circle
         style="fill:#ffaa31;fill-opacity:1;stroke:none;stroke-width:9.51799965;stroke-linecap:butt;stroke-linejoin:miter;stroke-miterlimit:4;stroke-dasharray:none;stroke-opacity:1"
         id="circle4294"
         cx="132.27344"
         cy="904.67468"
         r="105.41177" />
    </clipPath>
  </defs>
  <metadata
     id="metadata7">
    <rdf:RDF>
      <cc:Work
         rdf:about="">
        <dc:format>image/svg+xml</dc:format>
        <dc:type
           rdf:resource="http://purl.org/dc/dcmitype/StillImage" />
        <dc:title />
      </cc:Work>
    </rdf:RDF>
  </metadata>
  <g
     transform="translate(0,-796.36216)"
     id="layer1"
     inkscape:groupmode="layer"
     inkscape:label="Layer 1">
    <path
       style="fill:#ffaa31;fill-opacity:1;stroke:none;stroke-width:9.51799965;stroke-linecap:butt;stroke-linejoin:miter;stroke-miterlimit:4;stroke-dasharray:none;stroke-opacity:1"
       d="M 128,0 C 57.307552,0 0,57.307552 0,128 0,198.69245 57.307552,256 128,256 198.69245,256 256,198.69245 256,128 256,57.307552 198.69245,0 128,0 Z m -6.25,28 h 12.5 c 3.4625,0 6.25,2.786932 6.25,6.248047 V 59.25 c 0,3.461115 -2.7875,6.248047 -6.25,6.248047 h -12.5 c -3.4625,0 -6.25,-2.786932 -6.25,-6.248047 V 34.248047 C 115.5,30.786932 118.2875,28 121.75,28 Z M 66.128906,51.033203 c 1.5973,-3.19e-4 3.19428,0.612249 4.417969,1.835938 l 17.679687,17.677734 c 2.447379,2.447378 2.446405,6.389533 -0.002,8.837891 l -8.839843,8.839843 c -2.448358,2.448358 -6.38856,2.447378 -8.835938,0 L 52.869141,70.546875 c -2.447378,-2.447378 -2.446405,-6.389533 0.002,-8.837891 l 8.83789,-8.83789 c 1.224179,-1.224179 2.822622,-1.837571 4.419922,-1.837891 z m 123.744144,0 c 1.5973,3.2e-4 3.19379,0.611759 4.41797,1.835938 l 8.83984,8.839843 c 2.44836,2.448358 2.44933,6.390513 0.002,8.837891 l -17.67969,17.677734 c -2.44737,2.447378 -6.38953,2.448358 -8.83789,0 l -8.83789,-8.839843 c -2.44835,-2.448358 -2.44933,-6.390513 -0.002,-8.837891 l 17.67969,-17.677734 c 1.22369,-1.223689 2.82067,-1.836257 4.41797,-1.835938 z m -62.01563,27.064453 c 27.46621,0 50.10547,22.274104 50.10547,49.740234 0,27.46625 -22.63926,50.10742 -50.10547,50.10742 -27.46622,0 -49.742186,-22.64117 -49.742186,-50.10742 0,-27.46613 22.275966,-49.740234 49.742186,-49.740234 z M 34.25,115.5 h 25.001953 c 3.462489,0 6.25,2.7875 6.25,6.25 v 12.5 c 0,3.4625 -2.787511,6.25 -6.25,6.25 H 34.25 c -3.462489,0 -6.25,-2.7875 -6.25,-6.25 v -12.5 c 0,-3.4625 2.787511,-6.25 6.25,-6.25 z m 162.5,0 h 25.00195 c 3.46112,0 6.24805,2.7875 6.24805,6.25 v 12.5 c 0,3.4625 -2.78693,6.25 -6.24805,6.25 H 196.75 c -3.46112,0 -6.24805,-2.7875 -6.24805,-6.25 v -12.5 c 0,-3.4625 2.78693,-6.25 6.24805,-6.25 z M 74.96875,165.9375 c 1.597617,0 3.195743,0.61176 4.419922,1.83594 l 8.83789,8.83984 c 2.448358,2.44836 2.44835,6.38954 0,8.83789 l -17.679687,17.67969 c -2.448349,2.44835 -6.389533,2.44836 -8.837891,0 l -8.839843,-8.83984 c -2.448358,-2.44836 -2.44835,-6.38954 0,-8.8379 l 17.679687,-17.67968 c 1.224175,-1.22418 2.822305,-1.83594 4.419922,-1.83594 z m 106.0625,0 c 1.59762,0 3.19575,0.61176 4.41992,1.83594 l 17.67969,17.67968 c 2.44835,2.44835 2.44836,6.38954 0,8.8379 l -8.83984,8.83984 c -2.44836,2.44836 -6.38954,2.44835 -8.8379,0 l -17.67968,-17.67969 c -2.44835,-2.44835 -2.44836,-6.39148 0,-8.83984 l 8.83984,-8.83789 c 1.22418,-1.22418 2.82035,-1.83594 4.41797,-1.83594 z M 121.75,190.49805 h 12.5 c 3.4625,0 6.25,2.78751 6.25,6.25 V 221.75 c 0,3.46249 -2.7875,6.25 -6.25,6.25 h -12.5 c -3.4625,0 -6.25,-2.78751 -6.25,-6.25 v -25.00195 c 0,-3.46249 2.7875,-6.25 6.25,-6.25 z"
       transform="translate(0,796.36216)"
       id="path4145"
       inkscape:connector-curvature="0"
       sodipodi:nodetypes="sssssssssssssssccssccssssssccccccsssssssssssssssssssssssssccssssccsscssscsccssssssssss" />
  </g>
</svg>

<?xml version="1.0" encoding="UTF-8" standalone="no"?>
<!-- Created with Inkscape (http://www.inkscape.org/) -->

<svg
   xmlns:dc="http://purl.org/dc/elements/1.1/"
   xmlns:cc="http://creativecommons.org/ns#"
   xmlns:rdf="http://www.w3.org/1999/02/22-rdf-syntax-ns#"
   xmlns:svg="http://www.w3.org/2000/svg"
   xmlns="http://www.w3.org/2000/svg"
   xmlns:sodipodi="http://sodipodi.sourceforge.net/DTD/sodipodi-0.dtd"
   xmlns:inkscape="http://www.inkscape.org/namespaces/inkscape"
   width="256"
   height="256"
   viewBox="0 0 256 256"
   id="svg2"
   version="1.1"
   inkscape:version="0.91 r13725"
   sodipodi:docname="display-brightness-symbolic.svg">
  <sodipodi:namedview
     id="base"
     pagecolor="#ffffff"
     bordercolor="#666666"
     borderopacity="1.0"
     inkscape:pageopacity="0.0"
     inkscape:pageshadow="2"
     inkscape:zoom="3.2851562"
     inkscape:cx="72.599286"
     inkscape:cy="128"
     inkscape:document-units="px"
     inkscape:current-layer="layer1"
     showgrid="true"
     units="px"
     inkscape:window-width="1920"
     inkscape:window-height="1054"
     inkscape:window-x="0"
     inkscape:window-y="0"
     inkscape:window-maximized="1">
    <inkscape:grid
       spacingy="5"
       spacingx="5"
       id="grid4136"
       type="xygrid" />
  </sodipodi:namedview>
  <defs
     id="defs4">
    <clipPath
       id="clipPath4828"
       clipPathUnits="userSpaceOnUse">
      <circle
         style="opacity:1;fill:#68bdff;fill-opacity:1;stroke:none;stroke-width:52.82038116;stroke-linecap:round;stroke-linejoin:round;stroke-miterlimit:4;stroke-dasharray:none;stroke-opacity:1"
         id="circle4830"
         cx="128"
         cy="924.36218"
         r="128" />
    </clipPath>
    <clipPath
       id="clipPath4851"
       clipPathUnits="userSpaceOnUse">
      <path
         inkscape:connector-curvature="0"
         style="opacity:1;fill:#68bdff;fill-opacity:1;stroke:none;stroke-width:52.82038116;stroke-linecap:round;stroke-linejoin:round;stroke-miterlimit:4;stroke-dasharray:none;stroke-opacity:1"
         d="m 128,796.36216 a 128,128 0 0 0 -87.652344,34.83789 l 86.988284,87.51367 90.69336,-85.25976 A 128,128 0 0 0 128,796.36216 Z M 23.730469,850.28404 A 128,128 0 0 0 0,924.36216 128,128 0 0 0 128,1052.3622 128,128 0 0 0 256,924.36216 128,128 0 0 0 234.1582,852.93052 l -95.94336,90.19922 c -0.48074,0.45195 -0.99482,0.84265 -1.52148,1.20508 -0.25351,0.30378 -0.51825,0.602 -0.80469,0.88672 -4.95863,4.92876 -12.91888,4.90394 -17.84765,-0.0547 L 23.730469,850.28404 Z"
         id="path4853" />
    </clipPath>
    <clipPath
       id="clipPath4147"
       clipPathUnits="userSpaceOnUse">
      <path
         inkscape:connector-curvature="0"
         style="opacity:1;fill:#fff168;fill-opacity:1;stroke:none;stroke-width:52.82038116;stroke-linecap:round;stroke-linejoin:round;stroke-miterlimit:4;stroke-dasharray:none;stroke-opacity:1"
         d="M 23.730469,850.28404 A 128,128 0 0 0 0,924.36216 128,128 0 0 0 128,1052.3622 128,128 0 0 0 256,924.36216 128,128 0 0 0 234.1582,852.93052 l -95.94336,90.19922 c -0.48074,0.45195 -0.99482,0.84265 -1.52148,1.20508 -0.25351,0.30378 -0.51825,0.602 -0.80469,0.88672 -4.95863,4.92876 -12.91888,4.90394 -17.84765,-0.0547 l -94.310551,-94.8828 z"
         id="path4149" />
    </clipPath>
    <clipPath
       clipPathUnits="userSpaceOnUse"
       id="clipPath4292">
      <circle
         style="fill:#ffaa31;fill-opacity:1;stroke:none;stroke-width:9.51799965;stroke-linecap:butt;stroke-linejoin:miter;stroke-miterlimit:4;stroke-dasharray:none;stroke-opacity:1"
         id="circle4294"
         cx="132.27344"
         cy="904.67468"
         r="105.41177" />
    </clipPath>
  </defs>
  <metadata
     id="metadata7">
    <rdf:RDF>
      <cc:Work
         rdf:about="">
        <dc:format>image/svg+xml</dc:format>
        <dc:type
           rdf:resource="http://purl.org/dc/dcmitype/StillImage" />
        <dc:title />
      </cc:Work>
    </rdf:RDF>
  </metadata>
  <g
     transform="translate(0,-796.36216)"
     id="layer1"
     inkscape:groupmode="layer"
     inkscape:label="Layer 1">
    <path
       style="fill:#ffaa31;fill-opacity:1;stroke:none;stroke-width:9.51799965;stroke-linecap:butt;stroke-linejoin:miter;stroke-miterlimit:4;stroke-dasharray:none;stroke-opacity:1"
       d="M 128 0 A 128 128 0 0 0 0 128 A 128 128 0 0 0 128 256 A 128 128 0 0 0 256 128 A 128 128 0 0 0 128 0 z M 121.75 28 L 134.25 28 C 137.7125 28 140.5 30.786932 140.5 34.248047 L 140.5 59.25 C 140.5 62.711115 137.7125 65.498047 134.25 65.498047 L 121.75 65.498047 C 118.2875 65.498047 115.5 62.711115 115.5 59.25 L 115.5 34.248047 C 115.5 30.786932 118.2875 28 121.75 28 z M 66.128906 51.033203 C 67.726206 51.032884 69.323186 51.645452 70.546875 52.869141 L 88.226562 70.546875 C 90.673941 72.994253 90.672967 76.936408 88.224609 79.384766 L 79.384766 88.224609 C 76.936408 90.672967 72.996206 90.671987 70.548828 88.224609 L 52.869141 70.546875 C 50.421763 68.099497 50.422736 64.157342 52.871094 61.708984 L 61.708984 52.871094 C 62.933163 51.646915 64.531606 51.033523 66.128906 51.033203 z M 189.87305 51.033203 C 191.47035 51.033523 193.06684 51.644962 194.29102 52.869141 L 203.13086 61.708984 C 205.57922 64.157342 205.58019 68.099497 203.13281 70.546875 L 185.45312 88.224609 C 183.00575 90.671987 179.06359 90.672967 176.61523 88.224609 L 167.77734 79.384766 C 165.32899 76.936408 165.32801 72.994253 167.77539 70.546875 L 185.45508 52.869141 C 186.67877 51.645452 188.27575 51.032884 189.87305 51.033203 z M 127.85742 78.097656 C 155.32363 78.097656 177.96289 100.37176 177.96289 127.83789 C 177.96289 155.30414 155.32363 177.94531 127.85742 177.94531 C 100.3912 177.94531 78.115234 155.30414 78.115234 127.83789 C 78.115234 100.37176 100.3912 78.097656 127.85742 78.097656 z M 127.85742 102.9668 C 113.90223 102.9668 102.98633 113.88276 102.98633 127.83789 C 102.98633 141.79314 113.90223 153.07422 127.85742 153.07422 C 141.81261 153.07422 153.09375 141.79314 153.09375 127.83789 C 153.09375 113.88276 141.81261 102.9668 127.85742 102.9668 z M 34.25 115.5 L 59.251953 115.5 C 62.714442 115.5 65.501953 118.2875 65.501953 121.75 L 65.501953 134.25 C 65.501953 137.7125 62.714442 140.5 59.251953 140.5 L 34.25 140.5 C 30.787511 140.5 28 137.7125 28 134.25 L 28 121.75 C 28 118.2875 30.787511 115.5 34.25 115.5 z M 196.75 115.5 L 221.75195 115.5 C 225.21307 115.5 228 118.2875 228 121.75 L 228 134.25 C 228 137.7125 225.21307 140.5 221.75195 140.5 L 196.75 140.5 C 193.28888 140.5 190.50195 137.7125 190.50195 134.25 L 190.50195 121.75 C 190.50195 118.2875 193.28888 115.5 196.75 115.5 z M 74.96875 165.9375 C 76.566367 165.9375 78.164493 166.54926 79.388672 167.77344 L 88.226562 176.61328 C 90.67492 179.06164 90.674912 183.00282 88.226562 185.45117 L 70.546875 203.13086 C 68.098526 205.57921 64.157342 205.57922 61.708984 203.13086 L 52.869141 194.29102 C 50.420783 191.84266 50.420791 187.90148 52.869141 185.45312 L 70.548828 167.77344 C 71.773003 166.54926 73.371133 165.9375 74.96875 165.9375 z M 181.03125 165.9375 C 182.62887 165.9375 184.227 166.54926 185.45117 167.77344 L 203.13086 185.45312 C 205.57921 187.90147 205.57922 191.84266 203.13086 194.29102 L 194.29102 203.13086 C 191.84266 205.57922 187.90148 205.57921 185.45312 203.13086 L 167.77344 185.45117 C 165.32509 183.00282 165.32508 179.05969 167.77344 176.61133 L 176.61328 167.77344 C 177.83746 166.54926 179.43363 165.9375 181.03125 165.9375 z M 121.75 190.49805 L 134.25 190.49805 C 137.7125 190.49805 140.5 193.28556 140.5 196.74805 L 140.5 221.75 C 140.5 225.21249 137.7125 228 134.25 228 L 121.75 228 C 118.2875 228 115.5 225.21249 115.5 221.75 L 115.5 196.74805 C 115.5 193.28556 118.2875 190.49805 121.75 190.49805 z "
       transform="translate(0,796.36216)"
       id="path4145" />
  </g>
</svg>
